X:2873
T:Charlie Is My Darling.Primo.  JMT.048
M:4/4
L:1/8
Q:130
S:J.Moore,Tyneside,1841.(35)
R:Air
O:England
A:Northumbria
H:184
Z:vmp.Chris Partington
K:Bb
G>-AB>-c d2g>-e|e2g>-ed2-gd/-B/|G>-AB>-c d2g>-a|!
b2a>-gg2zg-|^f>(d=e>f) g>-a (ba/g/)|^f>d-"*"=e>f-g3a|!
(b>ab>g) f<-d (Bc/d/)|e>c d>B 2d>{cedcBAcBAG}^F/|G>(AB>cd2)g>-d|!
e2-g>e-d2gB/-A/|G>-AB>-cd2g>-a|(b2{c'}a>g{bc'}g2)|]
%presumed Enatural from previous bar


